!!!COM: Palestrina, Giovanni Perluigi da
!!!OPR: In illo tempore
!!!OTL: Agnus
**kern	**kern	**kern	**kern	**kern
*Ibass	*Itenor	*Itenor	*Icalto	*Icant
!Bassus	!Tenor 2	!Tenor 1	!Altus	!Cantus
*clefF4	*clefGv2	*clefGv2	*clefG2	*clefG2
*k[]	*k[]	*k[]	*k[]	*k[]
*A:aeo	*A:aeo	*A:aeo	*A:aeo	*A:aeo
*M4/2	*M4/2	*M4/2	*M4/2	*M4/2
=1	=1	=1	=1	=1
0r	0r	0A	0r	0r
=2	=2	=2	=2	=2
0r	0r	1A	0r	0r
.	.	2G	.	.
.	.	[2c	.	.
=3	=3	=3	=3	=3
0E	0r	2c]	0r	0r
.	.	4B	.	.
.	.	4A	.	.
.	.	2.G	.	.
.	.	4A	.	.
=4	=4	=4	=4	=4
1E	0r	2B	0r	0r
.	.	2c	.	.
1D	.	1d	.	.
=5	=5	=5	=5	=5
1.F	0A	2.c	0r	0r
.	.	4A	.	.
.	.	4c	.	.
.	.	4d	.	.
4E	.	[2e	.	.
4D	.	.	.	.
=6	=6	=6	=6	=6
2C	1A	2e]	0r	0r
2D	.	4d	.	.
.	.	4c	.	.
1E	1G	1B	.	.
=7	=7	=7	=7	=7
2.AA	1.c	1A	0e	0r
4BB	.	.	.	.
4C	.	2.G	.	.
4D	.	.	.	.
[2E	4B	.	.	.
.	4A	4A	.	.
=8	=8	=8	=8	=8
2E]	2G	2B	1e	0r
2C	2A	2c	.	.
2.G	2B	1B	1d	.
.	[2d	.	.	.
4F	.	.	.	.
=9	=9	=9	=9	=9
1E	2d]	1G	1.g	0r
.	2c#	.	.	.
[1D	2.d	[1A	.	.
.	.	.	4f	.
.	4e	.	4e	.
=10	=10	=10	=10	=10
2D]	2f	1A]	2d	0a
2C#	2e	.	2e	.
2D	2d	1r	2f	.
2E	[2c	.	[2e	.
=11	=11	=11	=11	=11
1F	2c]	0r	2e]	1a
.	4B	.	2d	.
.	4A	.	.	.
1E	1B	.	[1e	1g
=12	=12	=12	=12	=12
2.C	1E	2r	1e]	1.cc
.	.	1A	.	.
4D	.	.	.	.
1E	2r	.	1r	.
.	[2e	2G	.	4b
.	.	.	.	4a
=13	=13	=13	=13	=13
0r	4e]	2.c	1e	2g
.	4d	.	.	.
.	2c	.	.	2a
.	.	8B	.	.
.	.	8A	.	.
.	2B	2G	1e	2b
.	2c	2A	.	[2a
=14	=14	=14	=14	=14
1r	1d	1B	2d	2a]
.	.	.	2d	2g#
2r	[1e	1A	2c	[1a
2A	.	.	2A	.
=15	=15	=15	=15	=15
1A	1e]	2r	1c	1a]
.	.	2e	.	.
2G	1E	1e	1B	1r
2G	.	.	.	.
=16	=16	=16	=16	=16
2F	0r	2d	2r	1a
2D	.	2d	2A	.
1F	.	2c	4A	1a
.	.	.	4B	.
.	.	2A	4c	.
.	.	.	4d	.
=17	=17	=17	=17	=17
1C	0r	2.c	1e	2g
.	.	.	.	2g
.	.	4G	.	.
2r	.	1B-	2d	2f
2D	.	.	[2f	2d
=18	=18	=18	=18	=18
4D	1r	1A	4f]	1f
4E	.	.	4e	.
4F	.	.	1d	.
4G	.	.	.	.
1A	2r	1r	.	1e
.	2A	.	2c#	.
=19	=19	=19	=19	=19
2G	2B-	0r	[0d	2r
1B-	1G	.	.	2d
.	.	.	.	4d
.	.	.	.	4e
4A	4F	.	.	4f
4G	4E	.	.	4g
=20	=20	=20	=20	=20
1F#	1D	2r	1d]	1a
.	.	2d	.	.
[1G	2r	4d	1r	2g
.	.	4c	.	.
.	2d	4B-	.	[2b-
.	.	4A	.	.
=21	=21	=21	=21	=21
1G]	2d	2G	0r	4b-]
.	.	.	.	4a
.	2d	2B-	.	1g
1D	2.d	1A	.	.
.	.	.	.	2f#
.	4c	.	.	.
=22	=22	=22	=22	=22
1E	4B	0G	2r	[0g
.	4A	.	.	.
.	4G	.	2e	.
.	4F	.	.	.
2C	4E	.	1e	.
.	4C	.	.	.
2C	[2c	.	.	.
=23	=23	=23	=23	=23
1G	2c]	1r	2d	1g]
.	2B	.	2d	.
2A	1c	1e	2c	1r
[2c	.	.	2A	.
=24	=24	=24	=24	=24
4c]	1A	1e	1c	0r
4B	.	.	.	.
1A	.	.	.	.
.	1r	2d	1B	.
2G#	.	2d	.	.
=25	=25	=25	=25	=25
2A	1r	2c	0A	2r
2.AA	.	2A	.	2a
.	1e	1c	.	1a
4BB	.	.	.	.
4C	.	.	.	.
4D	.	.	.	.
=26	=26	=26	=26	=26
2E	1e	2B	0r	2g
2C	.	2c	.	2g
1D	2d	2A	.	2f
.	2d	[2F	.	2d
=27	=27	=27	=27	=27
2r	2c	4F]	0r	1f
.	.	4G	.	.
2D	2A	4A	.	.
.	.	4F	.	.
2C	1c	2G	.	1e
2C	.	[2A	.	.
=28	=28	=28	=28	=28
0D	1B	2A]	0r	0d
.	.	1G	.	.
.	1A	.	.	.
.	.	2F#	.	.
=29	=29	=29	=29	=29
1E	2G	1G	2r	0r
.	2B	.	1e	.
2r	2c	1E	.	.
[2E	[2B	.	2e	.
=30	=30	=30	=30	=30
2E]	2B]	2r	2.g	0r
2E	2.G	1B	.	.
.	.	.	8f	.
.	.	.	8e	.
2.G	.	.	2d	.
.	4A	.	.	.
.	4B	2B	2e	.
8F	4G	.	.	.
8E	.	.	.	.
=31	=31	=31	=31	=31
2D	2A	2d	2f	0r
2E	2G	4c	1g	.
.	.	4B	.	.
1F	[1c	2.A	.	.
.	.	.	[2f	.
.	.	8G	.	.
.	.	8F	.	.
=32	=32	=32	=32	=32
1C	1c]	2G	2f]	2r
.	.	2A	1e	1a
1D	2r	1F	.	.
.	[2A	.	2d	2a
=33	=33	=33	=33	=33
1AA	2A]	1E	2e	2.cc
.	2A	.	1e	.
.	.	.	.	8b
.	.	.	.	8a
1r	2.c	2r	.	2g
.	.	2A	2e	2a
.	8B	.	.	.
.	8A	.	.	.
=34	=34	=34	=34	=34
0r	2G	2E	2.g	2b
.	1C	2e	.	1cc
.	.	.	4f	.
.	.	2c	2e	.
.	[2G	2d	2d	[2b
=35	=35	=35	=35	=35
1E	2G]	0e	1c	2b]
.	2A	.	.	1a
1E	2B	.	1B	.
.	[2e	.	.	2g#
=36	=36	=36	=36	=36
2.F	2e]	1r	0r	2a
.	2d	.	.	1a
4G	.	.	.	.
[1A	2.c	[1e	.	.
.	.	.	.	2a
.	4B	.	.	.
=37	=37	=37	=37	=37
2A]	4A	2e]	0r	2.cc
.	4B	.	.	.
2A	2c	2e	.	.
.	.	.	.	4b
2D	2d	2f	.	2a
2E	2B	2e	.	2g
=38	=38	=38	=38	=38
4F	1A	2d	1r	1f
4G	.	.	.	.
1A	.	2c	.	.
.	1E	1B	2r	1e
2G#	.	.	[2e	.
=39	=39	=39	=39	=39
2A	1r	2c	2e]	0r
1E	.	4B	2e	.
.	.	4A	.	.
.	[1B	1G	2.g	.
2E	.	.	.	.
.	.	.	4f	.
=40	=40	=40	=40	=40
2.G	2B]	2r	2e	0r
.	2B	1G	2d	.
4F	.	.	.	.
2E	2c	.	2e	.
2D	4B	2d	[2f	.
.	4A	.	.	.
=41	=41	=41	=41	=41
2E	2G	2B	4f]	1r
.	.	.	4e	.
2C	2A	2c	1e	.
1D	1F	2.A	.	2r
.	.	.	2d	[2a
.	.	4B	.	.
=42	=42	=42	=42	=42
1AA	2E	1c	[0e	2a]
.	1A	.	.	2a
2r	.	1c	.	2.cc
2A	2A	.	.	.
.	.	.	.	4b
=43	=43	=43	=43	=43
2A	2.c	0r	0e]	2a
1c	.	.	.	2g
.	4B	.	.	.
.	2A	.	.	2a
2G	2E	.	.	[2b
=44	=44	=44	=44	=44
1A	1c	1.e	1r	4b]
.	.	.	.	4a
.	.	.	.	1a
1E	1B	.	[1e	.
.	.	2B	.	2g#
=45	=45	=45	=45	=45
1AA	1A	2c#	2e]	[0a
.	.	2c#	2e	.
2D	2r	2.d	2.f	.
2D	2D	.	.	.
.	.	8c	4e	.
.	.	8B	.	.
=46	=46	=46	=46	=46
2.F	2D	0A	2d	0a]
.	1F	.	2c	.
4E	.	.	.	.
2D	.	.	2d	.
2C#	2E	.	2e	.
=47	=47	=47	=47	=47
0D	4D	1A	0f	[0a
.	4E	.	.	.
.	4F	.	.	.
.	4G	.	.	.
.	1A	1d	.	.
=48	=48	=48	=48	=48
0AA	0A	0c#	0e	0a]
==	==	==	==	==
*-	*-	*-	*-	*-
!!!CDT: 1525/^1526/-1594/2/2
!!!OCY: Italia
!!!AGN: Mass (Parody)
!!!AST: renaissance, vocal
!!!ASW: Motet 1518 (Moulu)
!!!PWK: Masses, Book 10
!!!RNB: Cadence finals: E,G,C
!!!YOR: Le Opere Complete, v. 27, p. 1
!!!YOO: Rome, Italy: Fratelli Scalera
!!!END: 1992//
!!!EED: John Miller
!!!YEC: Copyright 2000, John Miller
!!!YEN: United States of America
!!!YEM: Rights to all derivative electronic formats reserved.
!!!YEM: Refer to licensing agreement for further details.
!!!YEM: This file must be accompanied by the licensing agreement.
!!!YEM: A copy of the licensing agreement may be found at http://www.music-cog.ohio-state.edu/HumdrumDatabases/Palestrina/license.txt
!!!EMD: converted to Humdrum by Bret Aarden
